svg/system/ghost_fill.svg

<?xml version="1.0" encoding="UTF-8"?>
<svg width="24px" height="24px" viewBox="0 0 24 24" version="1.1" xmlns="http://www.w3.org/2000/svg" xmlns:xlink="http://www.w3.org/1999/xlink">
    <title>ghost_fill</title>
    <g id="页面-1" stroke="none" stroke-width="1" fill="none" fill-rule="evenodd">
        <g id="System" transform="translate(-720.000000, -240.000000)">
            <g id="ghost_fill" transform="translate(720.000000, 240.000000)">
                 <path d="M24,0 L24,24 L0,24 L0,0 L24,0 Z M12.5934901,23.257841 L12.5819402,23.2595131 L12.5108777,23.2950439 L12.4918791,23.2987469 L12.4918791,23.2987469 L12.4767152,23.2950439 L12.4056548,23.2595131 C12.3958229,23.2563662 12.3870493,23.2590235 12.3821421,23.2649074 L12.3780323,23.275831 L12.360941,23.7031097 L12.3658947,23.7234994 L12.3769048,23.7357139 L12.4804777,23.8096931 L12.4953491,23.8136134 L12.4953491,23.8136134 L12.5071152,23.8096931 L12.6106902,23.7357139 L12.6232938,23.7196733 L12.6232938,23.7196733 L12.6266527,23.7031097 L12.609561,23.275831 C12.6075724,23.2657013 12.6010112,23.2592993 12.5934901,23.257841 L12.5934901,23.257841 Z M12.8583906,23.1452862 L12.8445485,23.1473072 L12.6598443,23.2396597 L12.6498822,23.2499052 L12.6498822,23.2499052 L12.6471943,23.2611114 L12.6650943,23.6906389 L12.6699349,23.7034178 L12.6699349,23.7034178 L12.678386,23.7104931 L12.8793402,23.8032389 C12.8914285,23.8068999 12.9022333,23.8029875 12.9078286,23.7952264 L12.9118235,23.7811639 L12.8776777,23.1665331 C12.8752882,23.1545897 12.8674102,23.1470016 12.8583906,23.1452862 L12.8583906,23.1452862 Z M12.1430473,23.1473072 C12.1332178,23.1423925 12.1221763,23.1452606 12.1156365,23.1525954 L12.1099173,23.1665331 L12.0757714,23.7811639 C12.0751323,23.7926639 12.0828099,23.8018602 12.0926481,23.8045676 L12.108256,23.8032389 L12.3092106,23.7104931 L12.3186497,23.7024347 L12.3186497,23.7024347 L12.3225043,23.6906389 L12.340401,23.2611114 L12.337245,23.2485176 L12.337245,23.2485176 L12.3277531,23.2396597 L12.1430473,23.1473072 Z" id="MingCute" fill-rule="nonzero"></path>
                <path d="M12,2 C16.9706,2 21,6.02944 21,11 L21,19.6207 C21,21.4506 19.0341,22.6074 17.4345,21.7187 L17.0720446,21.5243825 C16.0728067,21.0124062 15.2881947,20.8437981 14.1830599,21.4100628 L13.9846,21.5177 C12.8231222,22.1813611 11.4120698,22.2182312 10.2228615,21.6283102 L10.0154,21.5177 C8.73821,20.7879 7.84896,21.0056 6.56554,21.7187 C4.96587,22.6074 3,21.4506 3,19.6207 L3,11 C3,6.02944 7.02944,2 12,2 Z M8.5,9 C7.67157,9 7,9.67157 7,10.5 C7,11.3284 7.67157,12 8.5,12 C9.32843,12 10,11.3284 10,10.5 C10,9.67157 9.32843,9 8.5,9 Z M15.5,9 C14.6716,9 14,9.67157 14,10.5 C14,11.3284 14.6716,12 15.5,12 C16.3284,12 17,11.3284 17,10.5 C17,9.67157 16.3284,9 15.5,9 Z" id="形状" fill="#09244B"></path>
            </g>
        </g>
    </g>
</svg>

<svg xmlns="http://www.w3.org/2000/svg" width="24" height="24"><g fill="none" fill-rule="evenodd"><path d="M24 0v24H0V0h24ZM12.593 23.258l-.011.002-.071.035-.02.004-.014-.004-.071-.035c-.01-.004-.019-.001-.024.005l-.004.01-.017.428.005.02.01.013.104.074.015.004.012-.004.104-.074.012-.016.004-.017-.017-.427c-.002-.01-.009-.017-.017-.018Zm.265-.113-.013.002-.185.093-.01.01-.003.011.018.43.005.012.008.007.201.093c.012.004.023 0 .029-.008l.004-.014-.034-.614c-.003-.012-.01-.02-.02-.022Zm-.715.002a.023.023 0 0 0-.027.006l-.006.014-.034.614c0 .012.007.02.017.024l.015-.002.201-.093.01-.008.004-.011.017-.43-.003-.012-.01-.01-.184-.092Z"/><path fill="#09244B" d="M12 2a9 9 0 0 1 9 9v8.62c0 1.83-1.966 2.987-3.565 2.099l-.363-.195c-1-.512-1.784-.68-2.889-.114l-.198.108a4 4 0 0 1-3.762.11l-.208-.11c-1.277-.73-2.166-.512-3.45.2-1.6.89-3.565-.267-3.565-2.097V11a9 9 0 0 1 9-9ZM8.5 9a1.5 1.5 0 1 0 0 3 1.5 1.5 0 0 0 0-3Zm7 0a1.5 1.5 0 1 0 0 3 1.5 1.5 0 0 0 0-3Z"/></g></svg>
